icons/sparkle/sparkle-3.svg

<svg width="14" height="14" viewBox="0 0 14 14" fill="none"
    xmlns="http://www.w3.org/2000/svg">
    <path d="M6.75 2.75C7.02614 2.75 7.25 2.97386 7.25 3.25C7.25 5.183 8.817 6.75 10.75 6.75C11.0261 6.75 11.25 6.97386 11.25 7.25C11.25 7.52614 11.0261 7.75 10.75 7.75C8.817 7.75 7.25 9.317 7.25 11.25C7.25 11.5261 7.02614 11.75 6.75 11.75C6.47386 11.75 6.25 11.5261 6.25 11.25C6.25 9.317 4.683 7.75 2.75 7.75C2.47386 7.75 2.25 7.52614 2.25 7.25C2.25 6.97386 2.47386 6.75 2.75 6.75C4.683 6.75 6.25 5.183 6.25 3.25C6.25 2.97386 6.47386 2.75 6.75 2.75ZM6.75 5.31055C6.32108 6.1415 5.6415 6.82108 4.81055 7.25C5.64125 7.67879 6.32105 8.35787 6.75 9.18848C7.17881 8.35813 7.85813 7.67881 8.68848 7.25C7.85787 6.82105 7.17879 6.14125 6.75 5.31055Z" fill="red"/>
    <path d="M9.25 3.75V3.75C9.80228 3.75 10.25 4.19772 10.25 4.75V4.75" stroke="green" stroke-linecap="round" stroke-linejoin="round"/>
    <path d="M11.25 3.75V3.75C10.6977 3.75 10.25 4.19772 10.25 4.75V4.75" stroke="green" stroke-linecap="round" stroke-linejoin="round"/>
    <path d="M9.25 3.75V3.75C9.80228 3.75 10.25 3.30228 10.25 2.75V2.75" stroke="green" stroke-linecap="round" stroke-linejoin="round"/>
    <path d="M11.25 3.75V3.75C10.6977 3.75 10.25 3.30228 10.25 2.75V2.75" stroke="green" stroke-linecap="round" stroke-linejoin="round"/>
    <path d="M2 10.5V10.5C2.55228 10.5 3 10.9477 3 11.5V11.5" stroke="green" stroke-linecap="round" stroke-linejoin="round"/>
    <path d="M4 10.5V10.5C3.44772 10.5 3 10.9477 3 11.5V11.5" stroke="green" stroke-linecap="round" stroke-linejoin="round"/>
    <path d="M2 10.5V10.5C2.55228 10.5 3 10.0523 3 9.5V9.5" stroke="green" stroke-linecap="round" stroke-linejoin="round"/>
    <path d="M4 10.5V10.5C3.44772 10.5 3 10.0523 3 9.5V9.5" stroke="green" stroke-linecap="round" stroke-linejoin="round"/>
</svg>

<svg xmlns="http://www.w3.org/2000/svg" width="14" height="14" fill="none" viewBox="0 0 14 14"><path fill="red" d="M6.75 2.75a.5.5 0 0 1 .5.5 3.5 3.5 0 0 0 3.5 3.5.5.5 0 0 1 0 1 3.5 3.5 0 0 0-3.5 3.5.5.5 0 0 1-1 0 3.5 3.5 0 0 0-3.5-3.5.5.5 0 0 1 0-1 3.5 3.5 0 0 0 3.5-3.5.5.5 0 0 1 .5-.5m0 2.56a4.5 4.5 0 0 1-1.94 1.94 4.5 4.5 0 0 1 1.94 1.938A4.5 4.5 0 0 1 8.688 7.25 4.5 4.5 0 0 1 6.75 5.31"/><path stroke="green" stroke-linecap="round" stroke-linejoin="round" d="M9.25 3.75a1 1 0 0 1 1 1v0m1-1a1 1 0 0 0-1 1v0m-1-1a1 1 0 0 0 1-1v0m1 1a1 1 0 0 1-1-1v0M2 10.5a1 1 0 0 1 1 1v0m1-1a1 1 0 0 0-1 1v0m-1-1a1 1 0 0 0 1-1v0m1 1a1 1 0 0 1-1-1v0"/></svg>
